X:1
T: Donald to your soals
C:
R:Strathspey
Q: 100
K:Am
M:4/4
L:1/16
|:EA3 A3G A3B A3G|EA3 A3G A4 A2G2|EA3 A3G A3B c3e|d3c B3A G6A2|
EA3 A3G A3B A3G|EA3 A3G A4 A2G2|EA3 A3G A3B c3e|d3c B3A G6A2|
ce3 e3A dcBA eA3|ce3 e3A c4 A2B2|ce3 e3A cde^f g2e2|edcB dcBA G6B2|
ce3 e3A dcBA eA3|ce3 e3A c4 A2B2|ce3 e3A cde^f g2e2|edcB dcBA G2E2 A4:|
